;  Created by Sandify
;  https://sandify.org
;  Version: 0.2.8
;
;  Machine type: Rectangular
;    Min X (mm): 0
;    Max X (mm): 60
;    Min Y (mm): 0
;    Max Y (mm): 40
;  Content type: shape
;  Layer:
;    Shape: Fractal Line Writer
;    Name: polygon
;    Type: Gosper (flowsnake)
;    Iterations: 3
;    Visible: true
;    Initial width: 10
;    Initial height: 8
;    X offset: 0
;    Y offset: 0
;    Rotate (degrees): 0
;    Reverse path: false
;    Fine tuning:
;      Connect to next layer: line
;      Draw portion of path (%): 100
;      Backtrack at end (%): 0
;      Rotate starting point (%): 0
;  Reverse export path: false
;
; File name: 'Flowsnake'
; File type: gcode
;

G1 X0.000 Y16.536
G1 X0.000 Y40.000
G1 X45.000 Y40.000
G1 X45.000 Y37.321
G1 X39.200 Y40.000
G1 X35.800 Y40.000
G1 X30.000 Y37.321
G1 X37.500 Y33.857
G1 X45.000 Y30.393
G1 X52.500 Y33.857
G1 X60.000 Y30.393
G1 X60.000 Y16.536
G1 X52.500 Y20.000
G1 X52.500 Y26.928
G1 X45.000 Y23.464
G1 X45.000 Y16.536
G1 X52.500 Y13.072
G1 X52.500 Y6.143
G1 X52.500 Y0.000
G1 X50.800 Y0.000
G1 X45.000 Y2.679
G1 X45.000 Y9.607
G1 X37.500 Y6.143
G1 X37.500 Y0.000
G1 X20.800 Y0.000
G1 X15.000 Y2.679
G1 X22.500 Y6.143
G1 X30.000 Y2.679
G1 X30.000 Y9.607
G1 X22.500 Y13.072
G1 X22.500 Y20.000
G1 X30.000 Y23.464
G1 X30.000 Y16.536
G1 X37.500 Y13.072
G1 X37.500 Y20.000
G1 X37.500 Y26.928
G1 X30.000 Y30.393
G1 X22.500 Y26.928
G1 X15.000 Y30.393
G1 X22.500 Y33.857
G1 X22.500 Y40.000
G1 X20.800 Y40.000
G1 X15.000 Y37.321
G1 X7.500 Y33.857
G1 X7.500 Y26.928
G1 X15.000 Y23.464
G1 X15.000 Y16.536
G1 X15.000 Y9.607
G1 X7.500 Y13.072
G1 X7.500 Y20.000
G1 X0.000 Y16.536
G1 X0.000 Y9.607
G1 X7.500 Y6.143
G1 X7.500 Y0.000
G1 X5.800 Y0.000
G1 X0.000 Y2.679
G1 X0.000 Y0.000
G1 X60.000 Y0.000
G1 X60.000 Y37.321
G1 X54.200 Y40.000
G1 X57.793 Y40.000
G1 X0.000 Y40.000
G1 X0.000 Y0.000

