;  Created by Sandify
;  https://sandify.org
;  Version: 0.2.8
;
;  Machine type: Rectangular
;    Min X (mm): 0
;    Max X (mm): 60
;    Min Y (mm): 0
;    Max Y (mm): 40
;  Content type: machine
;  Reverse export path: false
;
; File name: 'sandify'
; File type: gcode
;

G1 X30.414 Y21.414
G1 X27.232 Y21.768
G1 X26.879 Y17.879
G1 X31.475 Y17.525
G1 X31.828 Y22.828
G1 X25.818 Y23.182
G1 X25.464 Y16.464
G1 X32.889 Y16.111
G1 X33.243 Y24.243
G1 X24.404 Y24.596
G1 X24.050 Y15.050
G1 X34.303 Y14.697
G1 X34.657 Y25.657
G1 X22.990 Y26.010
G1 X22.636 Y13.636
G1 X35.718 Y13.282
G1 X36.071 Y27.071
G1 X21.575 Y27.425
G1 X21.222 Y12.222
G1 X37.132 Y11.868
G1 X37.485 Y28.485
G1 X20.161 Y28.839
G1 X19.808 Y10.808
G1 X38.546 Y10.454
G1 X38.899 Y29.899
G1 X18.747 Y30.253
G1 X18.393 Y9.393
G1 X39.960 Y9.040
G1 X40.314 Y31.314
G1 X17.333 Y31.667
G1 X16.979 Y7.979
G1 X41.374 Y7.626
G1 X41.728 Y32.728
G1 X15.919 Y33.081
G1 X15.565 Y6.565
G1 X42.789 Y6.211
G1 X43.142 Y34.142
G1 X14.504 Y34.496
G1 X14.151 Y5.151
G1 X44.203 Y4.797

