;  Created by Sandify
;  https://sandify.org
;  Version: 0.2.8
;
;  Machine type: Rectangular
;    Min X (mm): 0
;    Max X (mm): 60
;    Min Y (mm): 0
;    Max Y (mm): 40
;  Content type: shape
;  Layer:
;    Shape: Polygon
;    Name: polygon
;    Number of sides: 4
;    Round corners: false
;    Visible: true
;    Initial width: 1
;    Initial height: 1
;    X offset: 0
;    Y offset: 0
;    Rotate (degrees): 0
;    Reverse path: false
;    Number of loops: 50
;    When transforming shape: smear
;    Scale: true
;      Scale (+/-): 100
;      Scale by: constant
;    Spin: false
;    Track: false
;    Fine tuning:
;      Connect to next layer: line
;      Draw portion of path (%): 100
;      Backtrack at end (%): 0
;      Rotate starting point (%): 0
;  Reverse export path: false
;
; File name: 'Square'
; File type: gcode
;

G1 X30.707 Y20.707
G1 X29.116 Y20.884
G1 X28.939 Y18.939
G1 X31.237 Y18.763
G1 X31.414 Y21.414
G1 X28.409 Y21.591
G1 X28.232 Y18.232
G1 X31.945 Y18.055
G1 X32.121 Y22.121
G1 X27.702 Y22.298
G1 X27.525 Y17.525
G1 X32.652 Y17.348
G1 X32.828 Y22.828
G1 X26.995 Y23.005
G1 X26.818 Y16.818
G1 X33.359 Y16.641
G1 X33.536 Y23.536
G1 X26.288 Y23.712
G1 X26.111 Y16.111
G1 X34.066 Y15.934
G1 X34.243 Y24.243
G1 X25.581 Y24.419
G1 X25.404 Y15.404
G1 X34.773 Y15.227
G1 X34.950 Y24.950
G1 X24.873 Y25.127
G1 X24.697 Y14.697
G1 X35.480 Y14.520
G1 X35.657 Y25.657
G1 X24.166 Y25.834
G1 X23.990 Y13.990
G1 X36.187 Y13.813
G1 X36.364 Y26.364
G1 X23.459 Y26.541
G1 X23.282 Y13.282
G1 X36.894 Y13.106
G1 X37.071 Y27.071
G1 X22.752 Y27.248
G1 X22.575 Y12.575
G1 X37.601 Y12.399
G1 X37.778 Y27.778
G1 X22.045 Y27.955
G1 X21.868 Y11.868
G1 X38.309 Y11.691
G1 X38.485 Y28.485
G1 X21.338 Y28.662
G1 X21.161 Y11.161
G1 X39.016 Y10.984
G1 X39.192 Y29.192
G1 X20.631 Y29.369
G1 X20.454 Y10.454
G1 X39.723 Y10.277
G1 X39.899 Y29.899
G1 X19.924 Y30.076
G1 X19.747 Y9.747
G1 X40.430 Y9.570
G1 X40.607 Y30.607
G1 X19.217 Y30.783
G1 X19.040 Y9.040
G1 X41.137 Y8.863
G1 X41.314 Y31.314
G1 X18.510 Y31.490
G1 X18.333 Y8.333
G1 X41.844 Y8.156
G1 X42.021 Y32.021
G1 X17.802 Y32.198
G1 X17.626 Y7.626
G1 X42.551 Y7.449
G1 X42.728 Y32.728
G1 X17.095 Y32.905
G1 X16.919 Y6.919
G1 X43.258 Y6.742
G1 X43.435 Y33.435
G1 X16.388 Y33.612
G1 X16.211 Y6.211
G1 X43.965 Y6.035
G1 X44.142 Y34.142
G1 X15.681 Y34.319
G1 X15.504 Y5.504
G1 X44.672 Y5.328
G1 X44.849 Y34.849
G1 X14.974 Y35.026
G1 X14.797 Y4.797
G1 X45.380 Y4.620
G1 X45.556 Y35.556
G1 X14.267 Y35.733
G1 X14.090 Y4.090
G1 X46.087 Y3.913
G1 X46.263 Y36.263
G1 X13.560 Y36.440
G1 X13.383 Y3.383
G1 X46.794 Y3.206
G1 X46.971 Y36.971
G1 X12.853 Y37.147
G1 X12.676 Y2.676
G1 X47.501 Y2.499
G1 X47.678 Y37.678
G1 X12.146 Y37.854
G1 X11.969 Y1.969
G1 X48.208 Y1.792
G1 X48.385 Y38.385
G1 X11.438 Y38.562
G1 X11.262 Y1.262
G1 X48.915 Y1.085
G1 X49.092 Y39.092
G1 X10.731 Y39.269
G1 X10.555 Y0.555
G1 X49.622 Y0.378
G1 X49.799 Y39.799
G1 X10.024 Y39.976
G1 X9.848 Y0.000
G1 X50.331 Y0.000
G1 X50.504 Y40.000
G1 X9.314 Y40.000
G1 X9.144 Y0.000
G1 X51.041 Y0.000
G1 X51.208 Y40.000
G1 X8.604 Y40.000
G1 X8.440 Y0.000
G1 X51.751 Y0.000
G1 X51.913 Y40.000
G1 X7.895 Y40.000
G1 X7.735 Y0.000
G1 X52.460 Y0.000
G1 X52.617 Y40.000
G1 X7.185 Y40.000
G1 X7.031 Y0.000
G1 X53.170 Y0.000
G1 X53.322 Y40.000
G1 X6.476 Y40.000
G1 X6.326 Y0.000
G1 X53.879 Y0.000
G1 X54.027 Y40.000
G1 X5.766 Y40.000
G1 X5.621 Y0.000
G1 X54.588 Y0.000
G1 X54.732 Y40.000
G1 X5.057 Y40.000
G1 X4.916 Y0.000
G1 X55.297 Y0.000
G1 X55.437 Y40.000
G1 X4.348 Y40.000
G1 X4.211 Y0.000
G1 X56.006 Y0.000
G1 X56.142 Y40.000
G1 X3.639 Y40.000
G1 X3.505 Y0.000
G1 X56.715 Y0.000
G1 X56.847 Y40.000
G1 X2.930 Y40.000
G1 X2.800 Y0.000
G1 X57.424 Y0.000
G1 X57.553 Y40.000
G1 X2.221 Y40.000
G1 X2.094 Y0.000
G1 X58.133 Y0.000
G1 X58.258 Y40.000
G1 X1.513 Y40.000
G1 X1.389 Y0.000
G1 X58.842 Y0.000
G1 X58.964 Y40.000
G1 X0.804 Y40.000
G1 X0.683 Y0.000
G1 X59.550 Y0.000
G1 X59.670 Y40.000
G1 X0.096 Y40.000
G1 X0.000 Y7.589

