;  Created by Sandify
;  https://sandify.org
;  Version: 0.2.8
;
;  Machine type: Rectangular
;    Min X (mm): 0
;    Max X (mm): 60
;    Min Y (mm): 0
;    Max Y (mm): 40
;  Content type: shape
;  Layer:
;    Shape: Star
;    Name: Star_Pattern
;    Number of points: 5
;    Size of points: 0.5
;    Visible: true
;    Initial width: 10
;    Initial height: 10
;    X offset: 0
;    Y offset: 0
;    Rotate (degrees): 0
;    Reverse path: false
;    Number of loops: 10
;    When transforming shape: smear
;    Scale: true
;      Scale (+/-): 100
;      Scale by: constant
;    Spin: false
;    Track: false
;    Fine tuning:
;      Connect to next layer: line
;      Draw portion of path (%): 100
;      Backtrack at end (%): 0
;      Rotate starting point (%): 0
;  Reverse export path: false
;
; File name: 'Star_Pattern'
; File type: gcode
;

G1 X35.000 Y20.000
G1 X38.899 Y26.466
G1 X31.854 Y25.706
G1 X25.983 Y32.364
G1 X24.337 Y24.114
G1 X15.000 Y20.000
G1 X23.528 Y15.298
G1 X24.747 Y3.832
G1 X32.781 Y11.440
G1 X45.371 Y8.832
G1 X40.000 Y20.000
G1 X46.989 Y32.343
G1 X33.399 Y30.462
G1 X24.618 Y40.000
G1 X22.564 Y40.000
G1 X20.292 Y27.053
G1 X5.000 Y20.000
G1 X19.483 Y12.359
G1 X20.972 Y0.000
G1 X27.476 Y0.000
G1 X34.326 Y6.685
G1 X53.461 Y2.954
G1 X45.000 Y20.000
G1 X55.080 Y38.221
G1 X34.944 Y35.217
G1 X30.465 Y40.000
G1 X17.910 Y40.000
G1 X16.247 Y29.992
G1 X0.000 Y22.352
G1 X0.000 Y17.412
G1 X15.438 Y9.420
G1 X16.635 Y0.000
G1 X33.920 Y0.000
G1 X35.871 Y1.930
G1 X46.083 Y0.000
G1 X60.000 Y0.000
G1 X60.000 Y0.156
G1 X50.000 Y20.000
G1 X60.000 Y38.299
G1 X60.000 Y40.000
G1 X36.669 Y40.000
G1 X36.489 Y39.972
G1 X36.463 Y40.000
G1 X13.342 Y40.000
G1 X12.202 Y32.931
G1 X0.000 Y27.131
G1 X0.000 Y12.317
G1 X11.393 Y6.481
G1 X12.241 Y0.000
G1 X60.000 Y0.000
G1 X60.000 Y10.165
G1 X55.000 Y20.000
G1 X60.000 Y29.218
G1 X60.000 Y40.000
G1 X8.810 Y40.000
G1 X8.157 Y35.870
G1 X0.000 Y31.966
G1 X0.000 Y7.280
G1 X7.348 Y3.542
G1 X7.820 Y0.000
G1 X0.000 Y0.000
G1 X0.000 Y40.000
G1 X4.297 Y40.000
G1 X4.111 Y38.809
G1 X0.000 Y36.832
G1 X0.000 Y2.275
G1 X3.302 Y0.603
G1 X3.384 Y0.000
G1 X1.175 Y0.000
G1 X0.000 Y0.000

