;  Created by Sandify
;  https://sandify.org
;  Version: 0.2.8
;
;  Machine type: Rectangular
;    Min X (mm): 0
;    Max X (mm): 60
;    Min Y (mm): 0
;    Max Y (mm): 40
;  Content type: shape
;  Layer:
;    Shape: Tessellation Twist
;    Name: polygon
;    Number of sides: 7
;    Iterations: 4
;    Rotate and twist: 10
;    Visible: true
;    Initial width: 4
;    Initial height: 4
;    X offset: 0
;    Y offset: 0
;    Rotate (degrees): 0
;    Reverse path: false
;    Fine tuning:
;      Connect to next layer: line
;      Draw portion of path (%): 100
;      Backtrack at end (%): 0
;      Rotate starting point (%): 0
;  Reverse export path: false
;
; File name: 'tessellation_twist '
; File type: gcode
;

G1 X60.000 Y8.625
G1 X60.000 Y6.041
G1 X59.307 Y6.163
G1 X60.000 Y4.705
G1 X60.000 Y4.015
G1 X57.691 Y4.442
G1 X59.307 Y6.163
G1 X56.668 Y6.685
G1 X57.691 Y4.442
G1 X58.759 Y2.226
G1 X60.000 Y3.562
G1 X60.000 Y2.012
G1 X58.759 Y2.226
G1 X56.077 Y2.746
G1 X55.038 Y4.991
G1 X57.691 Y4.442
G1 X56.077 Y2.746
G1 X53.411 Y3.323
G1 X50.761 Y3.955
G1 X51.791 Y1.676
G1 X49.131 Y2.333
G1 X46.489 Y3.045
G1 X47.514 Y0.729
G1 X49.131 Y2.333
G1 X50.183 Y0.047
G1 X47.514 Y0.729
G1 X44.864 Y1.464
G1 X46.489 Y3.045
G1 X48.129 Y4.642
G1 X49.131 Y2.333
G1 X50.761 Y3.955
G1 X48.129 Y4.642
G1 X45.516 Y5.384
G1 X43.867 Y3.812
G1 X46.489 Y3.045
G1 X45.516 Y5.384
G1 X42.922 Y6.180
G1 X43.867 Y3.812
G1 X44.864 Y1.464
G1 X45.525 Y0.000
G1 X47.855 Y0.000
G1 X47.514 Y0.729
G1 X46.781 Y0.000
G1 X50.136 Y0.000
G1 X50.183 Y0.047
G1 X51.791 Y1.676
G1 X53.411 Y3.323
G1 X54.469 Y1.073
G1 X51.791 Y1.676
G1 X52.593 Y0.000
G1 X50.386 Y0.000
G1 X50.183 Y0.047
G1 X50.206 Y0.000
G1 X53.431 Y0.000
G1 X54.469 Y1.073
G1 X55.003 Y0.000
G1 X42.910 Y0.000
G1 X40.628 Y0.699
G1 X42.237 Y2.252
G1 X43.213 Y0.000
G1 X43.369 Y0.000
G1 X44.864 Y1.464
G1 X42.237 Y2.252
G1 X39.632 Y3.090
G1 X40.628 Y0.699
G1 X40.937 Y0.000
G1 X38.682 Y0.000
G1 X38.022 Y1.552
G1 X40.628 Y0.699
G1 X39.915 Y0.000
G1 X36.475 Y0.000
G1 X36.440 Y0.012
G1 X36.433 Y0.000
G1 X34.241 Y0.000
G1 X34.111 Y0.308
G1 X33.928 Y0.000
G1 X32.060 Y0.000
G1 X31.803 Y0.623
G1 X31.437 Y0.000
G1 X26.522 Y0.000
G1 X27.252 Y1.280
G1 X27.756 Y0.000
G1 X23.514 Y0.000
G1 X22.785 Y1.926
G1 X21.725 Y0.000
G1 X19.376 Y0.000
G1 X20.579 Y2.226
G1 X21.408 Y0.000
G1 X19.310 Y0.000
G1 X18.388 Y2.503
G1 X15.900 Y2.172
G1 X17.167 Y4.508
G1 X14.677 Y4.166
G1 X12.201 Y3.774
G1 X13.478 Y6.152
G1 X14.677 Y4.166
G1 X15.974 Y6.509
G1 X13.478 Y6.152
G1 X10.993 Y5.743
G1 X8.519 Y5.280
G1 X9.801 Y7.697
G1 X7.315 Y7.214
G1 X8.519 Y5.280
G1 X6.057 Y4.763
G1 X7.315 Y7.214
G1 X8.621 Y9.633
G1 X9.801 Y7.697
G1 X10.993 Y5.743
G1 X9.737 Y3.330
G1 X7.286 Y2.833
G1 X8.519 Y5.280
G1 X9.737 Y3.330
G1 X8.531 Y0.887
G1 X7.286 Y2.833
G1 X6.057 Y4.763
G1 X4.839 Y6.675
G1 X6.120 Y9.128
G1 X7.315 Y7.214
G1 X4.839 Y6.675
G1 X3.628 Y8.567
G1 X6.120 Y9.128
G1 X8.621 Y9.633
G1 X11.132 Y10.083
G1 X12.298 Y8.126
G1 X9.801 Y7.697
G1 X11.132 Y10.083
G1 X13.651 Y10.477
G1 X12.298 Y8.126
G1 X10.993 Y5.743
G1 X12.201 Y3.774
G1 X13.429 Y1.794
G1 X14.677 Y4.166
G1 X15.900 Y2.172
G1 X13.429 Y1.794
G1 X10.973 Y1.366
G1 X9.737 Y3.330
G1 X12.201 Y3.774
G1 X10.973 Y1.366
G1 X8.531 Y0.887
G1 X6.103 Y0.356
G1 X7.286 Y2.833
G1 X4.847 Y2.282
G1 X2.421 Y1.678
G1 X3.605 Y4.192
G1 X4.847 Y2.282
G1 X6.057 Y4.763
G1 X3.605 Y4.192
G1 X1.166 Y3.566
G1 X2.421 Y1.678
G1 X3.536 Y0.000
G1 X3.793 Y0.000
G1 X4.847 Y2.282
G1 X6.103 Y0.356
G1 X4.631 Y0.000
G1 X0.699 Y0.000
G1 X0.007 Y1.020
G1 X2.421 Y1.678
G1 X1.672 Y0.000
G1 X0.000 Y0.000
G1 X0.000 Y1.004
G1 X0.007 Y1.020
G1 X1.166 Y3.566
G1 X2.373 Y6.082
G1 X4.839 Y6.675
G1 X3.605 Y4.192
G1 X2.373 Y6.082
G1 X3.628 Y8.567
G1 X4.929 Y11.019
G1 X6.120 Y9.128
G1 X7.447 Y11.547
G1 X8.818 Y13.933
G1 X9.974 Y12.019
G1 X7.447 Y11.547
G1 X8.621 Y9.633
G1 X9.974 Y12.019
G1 X11.370 Y14.372
G1 X8.818 Y13.933
G1 X6.273 Y13.438
G1 X7.447 Y11.547
G1 X4.929 Y11.019
G1 X6.273 Y13.438
G1 X7.658 Y15.822
G1 X10.230 Y16.284
G1 X8.818 Y13.933
G1 X7.658 Y15.822
G1 X9.080 Y18.170
G1 X7.271 Y19.908
G1 X9.887 Y20.374
G1 X8.067 Y22.108
G1 X6.216 Y23.799
G1 X8.872 Y24.284
G1 X8.067 Y22.108
G1 X10.707 Y22.554
G1 X8.872 Y24.284
G1 X7.003 Y25.971
G1 X5.098 Y27.617
G1 X7.788 Y28.121
G1 X5.859 Y29.764
G1 X5.098 Y27.617
G1 X3.159 Y29.220
G1 X5.859 Y29.764
G1 X8.565 Y30.251
G1 X7.788 Y28.121
G1 X7.003 Y25.971
G1 X4.333 Y25.448
G1 X2.416 Y27.055
G1 X5.098 Y27.617
G1 X4.333 Y25.448
G1 X1.671 Y24.868
G1 X2.416 Y27.055
G1 X3.159 Y29.220
G1 X3.894 Y31.364
G1 X6.610 Y31.891
G1 X5.859 Y29.764
G1 X3.894 Y31.364
G1 X4.618 Y33.490
G1 X6.610 Y31.891
G1 X8.565 Y30.251
G1 X10.482 Y28.569
G1 X9.679 Y26.437
G1 X7.788 Y28.121
G1 X10.482 Y28.569
G1 X12.361 Y26.845
G1 X9.679 Y26.437
G1 X7.003 Y25.971
G1 X6.216 Y23.799
G1 X5.434 Y21.604
G1 X8.067 Y22.108
G1 X7.271 Y19.908
G1 X5.434 Y21.604
G1 X3.569 Y23.258
G1 X4.333 Y25.448
G1 X6.216 Y23.799
G1 X3.569 Y23.258
G1 X1.671 Y24.868
G1 X0.000 Y26.226
G1 X0.000 Y26.495
G1 X2.416 Y27.055
G1 X0.465 Y28.618
G1 X0.000 Y28.975
G1 X0.000 Y30.499
G1 X1.184 Y30.780
G1 X0.465 Y28.618
G1 X3.159 Y29.220
G1 X1.184 Y30.780
G1 X0.000 Y31.673
G1 X0.000 Y28.504
G1 X0.465 Y28.618
G1 X0.000 Y27.214
G1 X0.000 Y32.487
G1 X1.893 Y32.922
G1 X3.894 Y31.364
G1 X1.184 Y30.780
G1 X1.893 Y32.922
G1 X4.618 Y33.490
G1 X7.347 Y34.002
G1 X6.610 Y31.891
G1 X9.330 Y32.363
G1 X12.050 Y32.778
G1 X11.274 Y30.681
G1 X9.330 Y32.363
G1 X8.565 Y30.251
G1 X11.274 Y30.681
G1 X13.985 Y31.056
G1 X12.050 Y32.778
G1 X10.076 Y34.459
G1 X9.330 Y32.363
G1 X7.347 Y34.002
G1 X10.076 Y34.459
G1 X12.803 Y34.863
G1 X14.768 Y33.140
G1 X12.050 Y32.778
G1 X12.803 Y34.863
G1 X15.526 Y35.215
G1 X15.757 Y37.713
G1 X17.752 Y35.958
G1 X17.973 Y38.462
G1 X18.077 Y40.000
G1 X19.247 Y40.000
G1 X20.176 Y39.189
G1 X17.973 Y38.462
G1 X19.968 Y36.676
G1 X20.176 Y39.189
G1 X20.226 Y40.000
G1 X22.670 Y40.000
G1 X22.363 Y39.901
G1 X22.368 Y40.000
G1 X24.488 Y40.000
G1 X24.354 Y38.058
G1 X22.363 Y39.901
G1 X22.251 Y40.000
G1 X16.179 Y40.000
G1 X17.973 Y38.462
G1 X15.757 Y37.713
G1 X15.923 Y40.000
G1 X28.043 Y40.000
G1 X28.659 Y39.415
G1 X28.690 Y40.000
G1 X34.863 Y40.000
G1 X34.840 Y39.526
G1 X36.783 Y38.241
G1 X34.840 Y39.526
G1 X35.556 Y40.000
G1 X38.894 Y40.000
G1 X38.878 Y39.645
G1 X38.335 Y40.000
G1 X36.884 Y40.000
G1 X36.783 Y38.241
G1 X38.878 Y39.645
G1 X39.384 Y40.000
G1 X42.866 Y40.000
G1 X42.860 Y39.848
G1 X42.626 Y40.000
G1 X44.828 Y40.000
G1 X44.764 Y38.616
G1 X42.860 Y39.848
G1 X42.697 Y37.122
G1 X40.797 Y38.379
G1 X42.860 Y39.848
G1 X40.797 Y38.379
G1 X40.882 Y40.000
G1 X46.591 Y40.000
G1 X44.764 Y38.616
G1 X42.697 Y37.122
G1 X40.598 Y35.673
G1 X40.797 Y38.379
G1 X38.702 Y36.954
G1 X38.878 Y39.645
G1 X40.797 Y38.379
G1 X42.697 Y37.122
G1 X42.860 Y39.848
G1 X43.064 Y40.000
G1 X42.866 Y40.000
G1 X42.860 Y39.848
G1 X42.626 Y40.000
G1 X44.828 Y40.000
G1 X44.764 Y38.616
G1 X42.860 Y39.848
G1 X40.797 Y38.379
G1 X40.882 Y40.000
G1 X46.591 Y40.000
G1 X44.764 Y38.616
G1 X42.697 Y37.122
G1 X40.598 Y35.673
G1 X40.797 Y38.379
G1 X38.702 Y36.954
G1 X38.878 Y39.645
G1 X38.335 Y40.000
G1 X38.894 Y40.000
G1 X38.878 Y39.645
G1 X39.384 Y40.000
G1 X36.884 Y40.000
G1 X36.783 Y38.241
G1 X38.878 Y39.645
G1 X36.783 Y38.241
G1 X38.702 Y36.954
G1 X40.598 Y35.673
G1 X42.477 Y34.404
G1 X42.697 Y37.122
G1 X44.580 Y35.879
G1 X46.452 Y34.657
G1 X46.652 Y37.401
G1 X44.580 Y35.879
G1 X44.764 Y38.616
G1 X46.652 Y37.401
G1 X48.530 Y36.207
G1 X46.452 Y34.657
G1 X44.343 Y33.154
G1 X44.580 Y35.879
G1 X42.477 Y34.404
G1 X44.343 Y33.154
G1 X46.200 Y31.926
G1 X48.317 Y33.458
G1 X46.452 Y34.657
G1 X46.200 Y31.926
G1 X48.054 Y30.726
G1 X48.317 Y33.458
G1 X48.530 Y36.207
G1 X48.692 Y38.970
G1 X47.048 Y40.000
G1 X46.790 Y40.000
G1 X46.652 Y37.401
G1 X48.692 Y38.970
G1 X48.732 Y40.000
G1 X34.863 Y40.000
G1 X34.840 Y39.526
G1 X36.783 Y38.241
G1 X38.702 Y36.954
G1 X40.598 Y35.673
G1 X42.477 Y34.404
G1 X42.697 Y37.122
G1 X44.580 Y35.879
G1 X46.452 Y34.657
G1 X46.652 Y37.401
G1 X44.580 Y35.879
G1 X44.764 Y38.616
G1 X46.652 Y37.401
G1 X48.530 Y36.207
G1 X46.452 Y34.657
G1 X44.343 Y33.154
G1 X44.580 Y35.879
G1 X42.477 Y34.404
G1 X44.343 Y33.154
G1 X46.200 Y31.926
G1 X48.317 Y33.458
G1 X46.452 Y34.657
G1 X46.200 Y31.926
G1 X48.054 Y30.726
G1 X48.317 Y33.458
G1 X48.530 Y36.207
G1 X48.692 Y38.970
G1 X47.048 Y40.000
G1 X46.790 Y40.000
G1 X46.652 Y37.401
G1 X48.692 Y38.970
G1 X48.732 Y40.000
G1 X52.605 Y40.000
G1 X52.589 Y39.448
G1 X53.236 Y40.000
G1 X56.393 Y40.000
G1 X54.473 Y38.337
G1 X54.529 Y40.000
G1 X56.456 Y40.000
G1 X56.354 Y37.255
G1 X54.473 Y38.337
G1 X52.589 Y39.448
G1 X51.670 Y40.000
G1 X59.431 Y40.000
G1 X58.344 Y39.003
G1 X56.558 Y40.000
G1 X58.367 Y40.000
G1 X58.344 Y39.003
G1 X56.354 Y37.255
G1 X54.329 Y35.552
G1 X54.473 Y38.337
G1 X52.454 Y36.664
G1 X50.402 Y35.038
G1 X50.576 Y37.804
G1 X52.454 Y36.664
G1 X52.589 Y39.448
G1 X50.576 Y37.804
G1 X48.692 Y38.970
G1 X49.973 Y40.000
G1 X50.673 Y40.000
G1 X50.576 Y37.804
G1 X48.530 Y36.207
G1 X50.402 Y35.038
G1 X52.270 Y33.897
G1 X52.454 Y36.664
G1 X54.329 Y35.552
G1 X52.270 Y33.897
G1 X50.178 Y32.287
G1 X48.317 Y33.458
G1 X50.402 Y35.038
G1 X50.178 Y32.287
G1 X48.054 Y30.726
G1 X45.899 Y29.212
G1 X46.200 Y31.926
G1 X44.053 Y30.442
G1 X42.202 Y31.698
G1 X41.875 Y29.006
G1 X44.053 Y30.442
G1 X43.713 Y27.747
G1 X41.875 Y29.006
G1 X40.032 Y30.291
G1 X38.178 Y31.597
G1 X37.832 Y28.933
G1 X35.983 Y30.263
G1 X38.178 Y31.597
G1 X36.307 Y32.914
G1 X35.983 Y30.263
G1 X35.603 Y27.622
G1 X37.832 Y28.933
G1 X40.032 Y30.291
G1 X40.343 Y32.977
G1 X38.468 Y34.271
G1 X38.178 Y31.597
G1 X40.343 Y32.977
G1 X40.598 Y35.673
G1 X38.468 Y34.271
G1 X36.307 Y32.914
G1 X34.114 Y31.601
G1 X33.758 Y28.976
G1 X35.983 Y30.263
G1 X34.114 Y31.601
G1 X31.888 Y30.329
G1 X33.758 Y28.976
G1 X35.603 Y27.622
G1 X37.431 Y26.282
G1 X39.667 Y27.619
G1 X37.832 Y28.933
G1 X37.431 Y26.282
G1 X39.252 Y24.964
G1 X39.667 Y27.619
G1 X40.032 Y30.291
G1 X42.202 Y31.698
G1 X40.343 Y32.977
G1 X42.477 Y34.404
G1 X42.202 Y31.698
G1 X44.343 Y33.154
G1 X44.053 Y30.442
G1 X45.899 Y29.212
G1 X43.713 Y27.747
G1 X41.497 Y26.331
G1 X39.667 Y27.619
G1 X41.875 Y29.006
G1 X41.497 Y26.331
G1 X39.252 Y24.964
G1 X36.980 Y23.647
G1 X37.431 Y26.282
G1 X35.167 Y24.994
G1 X32.876 Y23.755
G1 X33.345 Y26.360
G1 X35.167 Y24.994
G1 X35.603 Y27.622
G1 X33.345 Y26.360
G1 X31.056 Y25.143
G1 X32.876 Y23.755
G1 X34.679 Y22.381
G1 X35.167 Y24.994
G1 X36.980 Y23.647
G1 X34.679 Y22.381
G1 X32.352 Y21.165
G1 X30.556 Y22.565
G1 X32.876 Y23.755
G1 X32.352 Y21.165
G1 X30.000 Y20.000
G1 X30.556 Y22.565
G1 X31.056 Y25.143
G1 X31.500 Y27.731
G1 X33.758 Y28.976
G1 X33.345 Y26.360
G1 X31.500 Y27.731
G1 X31.888 Y30.329
G1 X32.219 Y32.936
G1 X34.114 Y31.601
G1 X34.413 Y34.235
G1 X34.655 Y36.877
G1 X36.574 Y35.574
G1 X34.413 Y34.235
G1 X36.307 Y32.914
G1 X36.574 Y35.574
G1 X38.702 Y36.954
G1 X38.468 Y34.271
G1 X36.574 Y35.574
G1 X36.783 Y38.241
G1 X34.655 Y36.877
G1 X32.493 Y35.551
G1 X34.413 Y34.235
G1 X32.219 Y32.936
G1 X32.493 Y35.551
G1 X32.710 Y38.174
G1 X34.840 Y39.526
G1 X34.109 Y40.000
G1 X13.010 Y40.000
G1 X13.722 Y39.426
G1 X13.754 Y40.000
G1 X15.351 Y40.000
G1 X13.722 Y39.426
G1 X11.496 Y38.619
G1 X11.581 Y40.000
G1 X9.750 Y40.000
G1 X11.496 Y38.619
G1 X13.531 Y36.938
G1 X15.757 Y37.713
G1 X13.722 Y39.426
G1 X13.531 Y36.938
G1 X15.526 Y35.215
G1 X17.752 Y35.958
G1 X19.968 Y36.676
G1 X22.170 Y37.374
G1 X22.363 Y39.901
G1 X20.176 Y39.189
G1 X22.170 Y37.374
G1 X24.354 Y38.058
G1 X26.517 Y38.736
G1 X25.171 Y40.000
G1 X26.596 Y40.000
G1 X26.517 Y38.736
G1 X28.659 Y39.415
G1 X30.463 Y40.000
G1 X32.822 Y40.000
G1 X32.710 Y38.174
G1 X34.655 Y36.877
G1 X34.840 Y39.526
G1 X35.556 Y40.000
G1 X52.605 Y40.000
G1 X52.589 Y39.448
G1 X53.236 Y40.000
G1 X51.670 Y40.000
G1 X52.589 Y39.448
G1 X54.473 Y38.337
G1 X56.393 Y40.000
G1 X54.529 Y40.000
G1 X54.473 Y38.337
G1 X56.354 Y37.255
G1 X56.456 Y40.000
G1 X59.431 Y40.000
G1 X58.344 Y39.003
G1 X56.558 Y40.000
G1 X58.367 Y40.000
G1 X58.344 Y39.003
G1 X56.354 Y37.255
G1 X54.329 Y35.552
G1 X54.473 Y38.337
G1 X52.454 Y36.664
G1 X50.402 Y35.038
G1 X50.576 Y37.804
G1 X52.454 Y36.664
G1 X52.589 Y39.448
G1 X50.576 Y37.804
G1 X48.692 Y38.970
G1 X49.973 Y40.000
G1 X50.673 Y40.000
G1 X50.576 Y37.804
G1 X48.530 Y36.207
G1 X50.402 Y35.038
G1 X52.270 Y33.897
G1 X52.454 Y36.664
G1 X54.329 Y35.552
G1 X52.270 Y33.897
G1 X50.178 Y32.287
G1 X48.317 Y33.458
G1 X50.402 Y35.038
G1 X50.178 Y32.287
G1 X48.054 Y30.726
G1 X45.899 Y29.212
G1 X46.200 Y31.926
G1 X44.053 Y30.442
G1 X42.202 Y31.698
G1 X41.875 Y29.006
G1 X44.053 Y30.442
G1 X43.713 Y27.747
G1 X41.875 Y29.006
G1 X40.032 Y30.291
G1 X38.178 Y31.597
G1 X37.832 Y28.933
G1 X35.983 Y30.263
G1 X38.178 Y31.597
G1 X36.307 Y32.914
G1 X35.983 Y30.263
G1 X35.603 Y27.622
G1 X37.832 Y28.933
G1 X40.032 Y30.291
G1 X40.343 Y32.977
G1 X38.468 Y34.271
G1 X38.178 Y31.597
G1 X40.343 Y32.977
G1 X40.598 Y35.673
G1 X38.468 Y34.271
G1 X36.307 Y32.914
G1 X34.114 Y31.601
G1 X33.758 Y28.976
G1 X35.983 Y30.263
G1 X34.114 Y31.601
G1 X31.888 Y30.329
G1 X29.722 Y29.727
G1 X30.071 Y32.309
G1 X27.899 Y31.693
G1 X25.706 Y31.077
G1 X26.033 Y33.624
G1 X27.899 Y31.693
G1 X28.209 Y34.260
G1 X26.033 Y33.624
G1 X23.836 Y32.983
G1 X25.706 Y31.077
G1 X27.534 Y29.133
G1 X27.899 Y31.693
G1 X29.722 Y29.727
G1 X27.534 Y29.133
G1 X25.325 Y28.534
G1 X23.495 Y30.449
G1 X25.706 Y31.077
G1 X25.325 Y28.534
G1 X23.102 Y27.916
G1 X23.495 Y30.449
G1 X23.836 Y32.983
G1 X24.122 Y35.519
G1 X26.303 Y36.177
G1 X26.033 Y33.624
G1 X24.122 Y35.519
G1 X24.354 Y38.058
G1 X26.303 Y36.177
G1 X28.209 Y34.260
G1 X30.071 Y32.309
G1 X32.219 Y32.936
G1 X30.362 Y34.899
G1 X32.493 Y35.551
G1 X30.362 Y34.899
G1 X30.598 Y37.497
G1 X28.462 Y36.834
G1 X30.362 Y34.899
G1 X28.209 Y34.260
G1 X28.462 Y36.834
G1 X26.303 Y36.177
G1 X26.517 Y38.736
G1 X28.462 Y36.834
G1 X28.659 Y39.415
G1 X30.598 Y37.497
G1 X32.493 Y35.551
G1 X34.655 Y36.877
G1 X34.413 Y34.235
G1 X36.574 Y35.574
G1 X34.655 Y36.877
G1 X36.783 Y38.241
G1 X36.574 Y35.574
G1 X38.702 Y36.954
G1 X38.468 Y34.271
G1 X36.574 Y35.574
G1 X36.307 Y32.914
G1 X34.413 Y34.235
G1 X34.114 Y31.601
G1 X32.219 Y32.936
G1 X34.413 Y34.235
G1 X34.655 Y36.877
G1 X34.840 Y39.526
G1 X34.655 Y36.877
G1 X32.710 Y38.174
G1 X30.878 Y40.000
G1 X30.769 Y40.000
G1 X30.598 Y37.497
G1 X32.710 Y38.174
G1 X32.493 Y35.551
G1 X30.362 Y34.899
G1 X30.071 Y32.309
G1 X31.888 Y30.329
G1 X33.758 Y28.976
G1 X35.603 Y27.622
G1 X37.431 Y26.282
G1 X39.667 Y27.619
G1 X37.832 Y28.933
G1 X37.431 Y26.282
G1 X39.252 Y24.964
G1 X39.667 Y27.619
G1 X40.032 Y30.291
G1 X42.202 Y31.698
G1 X40.343 Y32.977
G1 X42.477 Y34.404
G1 X42.202 Y31.698
G1 X44.343 Y33.154
G1 X44.053 Y30.442
G1 X45.899 Y29.212
G1 X43.713 Y27.747
G1 X41.497 Y26.331
G1 X39.667 Y27.619
G1 X41.875 Y29.006
G1 X41.497 Y26.331
G1 X39.252 Y24.964
G1 X36.980 Y23.647
G1 X37.431 Y26.282
G1 X35.167 Y24.994
G1 X32.876 Y23.755
G1 X33.345 Y26.360
G1 X35.167 Y24.994
G1 X35.603 Y27.622
G1 X33.345 Y26.360
G1 X31.056 Y25.143
G1 X28.857 Y24.590
G1 X29.318 Y27.153
G1 X27.113 Y26.581
G1 X28.857 Y24.590
G1 X26.638 Y24.032
G1 X27.113 Y26.581
G1 X27.534 Y29.133
G1 X29.318 Y27.153
G1 X29.722 Y29.727
G1 X31.500 Y27.731
G1 X33.758 Y28.976
G1 X33.345 Y26.360
G1 X31.500 Y27.731
G1 X29.318 Y27.153
G1 X31.056 Y25.143
G1 X32.876 Y23.755
G1 X34.679 Y22.381
G1 X35.167 Y24.994
G1 X36.980 Y23.647
G1 X34.679 Y22.381
G1 X32.352 Y21.165
G1 X30.556 Y22.565
G1 X28.341 Y22.034
G1 X28.857 Y24.590
G1 X30.556 Y22.565
G1 X32.876 Y23.755
G1 X32.352 Y21.165
G1 X30.000 Y20.000
G1 X28.341 Y22.034
G1 X26.638 Y24.032
G1 X24.891 Y25.993
G1 X25.325 Y28.534
G1 X27.113 Y26.581
G1 X24.891 Y25.993
G1 X23.102 Y27.916
G1 X21.269 Y29.800
G1 X23.495 Y30.449
G1 X21.622 Y32.326
G1 X19.707 Y34.162
G1 X21.923 Y34.850
G1 X21.622 Y32.326
G1 X23.836 Y32.983
G1 X21.923 Y34.850
G1 X22.170 Y37.374
G1 X24.122 Y35.519
G1 X21.923 Y34.850
G1 X19.968 Y36.676
G1 X19.707 Y34.162
G1 X19.396 Y31.645
G1 X21.622 Y32.326
G1 X21.269 Y29.800
G1 X19.396 Y31.645
G1 X17.481 Y33.450
G1 X17.752 Y35.958
G1 X19.707 Y34.162
G1 X17.481 Y33.450
G1 X15.526 Y35.215
G1 X14.768 Y33.140
G1 X13.985 Y31.056
G1 X13.180 Y28.959
G1 X10.482 Y28.569
G1 X11.274 Y30.681
G1 X13.180 Y28.959
G1 X12.361 Y26.845
G1 X11.534 Y24.711
G1 X9.679 Y26.437
G1 X8.872 Y24.284
G1 X11.534 Y24.711
G1 X10.707 Y22.554
G1 X9.887 Y20.374
G1 X9.080 Y18.170
G1 X6.489 Y17.684
G1 X7.271 Y19.908
G1 X4.663 Y19.385
G1 X2.810 Y21.043
G1 X2.063 Y18.805
G1 X4.663 Y19.385
G1 X3.906 Y17.142
G1 X2.063 Y18.805
G1 X0.196 Y20.426
G1 X0.000 Y20.588
G1 X0.000 Y20.375
G1 X0.196 Y20.426
G1 X0.930 Y22.659
G1 X0.000 Y23.424
G1 X0.000 Y22.427
G1 X0.930 Y22.659
G1 X1.671 Y24.868
G1 X0.000 Y24.466
G1 X0.000 Y19.813
G1 X0.196 Y20.426
G1 X2.810 Y21.043
G1 X0.930 Y22.659
G1 X3.569 Y23.258
G1 X2.810 Y21.043
G1 X5.434 Y21.604
G1 X4.663 Y19.385
G1 X6.489 Y17.684
G1 X3.906 Y17.142
G1 X1.333 Y16.544
G1 X0.000 Y17.709
G1 X0.000 Y18.298
G1 X2.063 Y18.805
G1 X1.333 Y16.544
G1 X0.000 Y16.203
G1 X0.000 Y9.947
G1 X1.210 Y12.279
G1 X0.000 Y11.960
G1 X0.000 Y14.089
G1 X1.210 Y12.279
G1 X2.420 Y10.435
G1 X1.146 Y7.951
G1 X0.000 Y9.677
G1 X0.000 Y9.816
G1 X2.420 Y10.435
G1 X4.929 Y11.019
G1 X3.737 Y12.887
G1 X5.094 Y15.303
G1 X2.539 Y14.728
G1 X3.737 Y12.887
G1 X1.210 Y12.279
G1 X2.539 Y14.728
G1 X0.000 Y14.099
G1 X0.000 Y14.107
G1 X1.333 Y16.544
G1 X2.539 Y14.728
G1 X3.906 Y17.142
G1 X5.094 Y15.303
G1 X6.489 Y17.684
G1 X7.658 Y15.822
G1 X5.094 Y15.303
G1 X6.273 Y13.438
G1 X3.737 Y12.887
G1 X2.420 Y10.435
G1 X3.628 Y8.567
G1 X1.146 Y7.951
G1 X0.000 Y7.639
G1 X0.000 Y5.600
G1 X1.146 Y7.951
G1 X2.373 Y6.082
G1 X0.000 Y5.455
G1 X0.000 Y5.312
G1 X1.166 Y3.566
G1 X0.000 Y3.239
G1 X0.000 Y1.018
G1 X0.007 Y1.020
G1 X0.000 Y1.030
G1 X0.000 Y0.000
G1 X6.336 Y0.000
G1 X6.103 Y0.356
G1 X5.942 Y0.000
G1 X8.117 Y0.000
G1 X8.531 Y0.887
G1 X9.105 Y0.000
G1 X10.313 Y0.000
G1 X10.973 Y1.366
G1 X11.845 Y0.000
G1 X12.535 Y0.000
G1 X13.429 Y1.794
G1 X14.561 Y0.000
G1 X17.064 Y0.000
G1 X17.151 Y0.174
G1 X15.900 Y2.172
G1 X14.782 Y0.000
G1 X15.979 Y0.000
G1 X17.151 Y0.174
G1 X18.388 Y2.503
G1 X17.167 Y4.508
G1 X15.974 Y6.509
G1 X14.804 Y8.500
G1 X12.298 Y8.126
G1 X13.478 Y6.152
G1 X14.804 Y8.500
G1 X13.651 Y10.477
G1 X12.509 Y12.436
G1 X11.132 Y10.083
G1 X9.974 Y12.019
G1 X12.509 Y12.436
G1 X11.370 Y14.372
G1 X10.230 Y16.284
G1 X9.080 Y18.170
G1 X11.679 Y18.598
G1 X9.887 Y20.374
G1 X12.510 Y20.783
G1 X15.140 Y21.135
G1 X13.354 Y22.944
G1 X12.510 Y20.783
G1 X10.707 Y22.554
G1 X13.354 Y22.944
G1 X16.006 Y23.275
G1 X18.663 Y23.549
G1 X19.549 Y25.648
G1 X16.874 Y25.393
G1 X18.663 Y23.549
G1 X21.322 Y23.766
G1 X19.549 Y25.648
G1 X17.734 Y27.490
G1 X16.874 Y25.393
G1 X16.006 Y23.275
G1 X14.202 Y25.080
G1 X15.047 Y27.196
G1 X16.874 Y25.393
G1 X14.202 Y25.080
G1 X11.534 Y24.711
G1 X13.354 Y22.944
G1 X14.202 Y25.080
G1 X12.361 Y26.845
G1 X15.047 Y27.196
G1 X17.734 Y27.490
G1 X20.421 Y27.730
G1 X22.222 Y25.847
G1 X19.549 Y25.648
G1 X20.421 Y27.730
G1 X21.269 Y29.800
G1 X18.577 Y29.573
G1 X16.693 Y31.377
G1 X15.880 Y29.293
G1 X18.577 Y29.573
G1 X17.734 Y27.490
G1 X15.880 Y29.293
G1 X15.047 Y27.196
G1 X13.180 Y28.959
G1 X15.880 Y29.293
G1 X13.985 Y31.056
G1 X16.693 Y31.377
G1 X14.768 Y33.140
G1 X17.481 Y33.450
G1 X16.693 Y31.377
G1 X19.396 Y31.645
G1 X18.577 Y29.573
G1 X20.421 Y27.730
G1 X23.102 Y27.916
G1 X22.222 Y25.847
G1 X21.322 Y23.766
G1 X20.413 Y21.666
G1 X17.774 Y21.429
G1 X18.663 Y23.549
G1 X20.413 Y21.666
G1 X19.510 Y19.542
G1 X17.774 Y21.429
G1 X16.006 Y23.275
G1 X15.140 Y21.135
G1 X14.284 Y18.970
G1 X12.510 Y20.783
G1 X11.679 Y18.598
G1 X14.284 Y18.970
G1 X16.895 Y19.284
G1 X17.774 Y21.429
G1 X15.140 Y21.135
G1 X16.895 Y19.284
G1 X19.510 Y19.542
G1 X22.129 Y19.742
G1 X20.413 Y21.666
G1 X23.055 Y21.846
G1 X25.699 Y21.968
G1 X23.982 Y23.927
G1 X23.055 Y21.846
G1 X21.322 Y23.766
G1 X23.982 Y23.927
G1 X22.222 Y25.847
G1 X24.891 Y25.993
G1 X23.982 Y23.927
G1 X26.638 Y24.032
G1 X25.699 Y21.968
G1 X24.751 Y19.885
G1 X23.055 Y21.846
G1 X22.129 Y19.742
G1 X24.751 Y19.885
G1 X27.375 Y19.971
G1 X28.341 Y22.034
G1 X25.699 Y21.968
G1 X27.375 Y19.971
G1 X30.000 Y20.000
G1 X28.386 Y17.930
G1 X27.375 Y19.971
G1 X25.780 Y17.864
G1 X23.178 Y17.743
G1 X24.227 Y15.721
G1 X25.780 Y17.864
G1 X26.817 Y15.825
G1 X24.227 Y15.721
G1 X21.645 Y15.564
G1 X19.068 Y15.350
G1 X20.156 Y13.349
G1 X17.600 Y13.100
G1 X19.068 Y15.350
G1 X16.496 Y15.081
G1 X17.600 Y13.100
G1 X18.714 Y11.101
G1 X20.156 Y13.349
G1 X21.645 Y15.564
G1 X22.720 Y13.544
G1 X21.260 Y11.333
G1 X20.156 Y13.349
G1 X22.720 Y13.544
G1 X23.818 Y11.513
G1 X21.260 Y11.333
G1 X18.714 Y11.101
G1 X16.178 Y10.817
G1 X15.051 Y12.796
G1 X17.600 Y13.100
G1 X16.178 Y10.817
G1 X13.651 Y10.477
G1 X15.051 Y12.796
G1 X16.496 Y15.081
G1 X17.984 Y17.330
G1 X20.579 Y17.565
G1 X19.068 Y15.350
G1 X17.984 Y17.330
G1 X16.895 Y19.284
G1 X15.394 Y17.038
G1 X12.809 Y16.689
G1 X13.930 Y14.755
G1 X15.394 Y17.038
G1 X16.496 Y15.081
G1 X13.930 Y14.755
G1 X15.051 Y12.796
G1 X12.509 Y12.436
G1 X13.930 Y14.755
G1 X11.370 Y14.372
G1 X12.809 Y16.689
G1 X10.230 Y16.284
G1 X11.679 Y18.598
G1 X12.809 Y16.689
G1 X14.284 Y18.970
G1 X15.394 Y17.038
G1 X17.984 Y17.330
G1 X19.510 Y19.542
G1 X20.579 Y17.565
G1 X21.645 Y15.564
G1 X23.178 Y17.743
G1 X20.579 Y17.565
G1 X22.129 Y19.742
G1 X23.178 Y17.743
G1 X24.751 Y19.885
G1 X25.780 Y17.864
G1 X28.386 Y17.930
G1 X26.817 Y15.825
G1 X25.294 Y13.686
G1 X22.720 Y13.544
G1 X24.227 Y15.721
G1 X25.294 Y13.686
G1 X23.818 Y11.513
G1 X22.388 Y9.308
G1 X21.260 Y11.333
G1 X19.848 Y9.089
G1 X18.483 Y6.814
G1 X17.320 Y8.821
G1 X19.848 Y9.089
G1 X18.714 Y11.101
G1 X17.320 Y8.821
G1 X14.804 Y8.500
G1 X16.178 Y10.817
G1 X17.320 Y8.821
G1 X15.974 Y6.509
G1 X18.483 Y6.814
G1 X21.006 Y7.070
G1 X19.848 Y9.089
G1 X22.388 Y9.308
G1 X21.006 Y7.070
G1 X19.673 Y4.802
G1 X17.167 Y4.508
G1 X18.483 Y6.814
G1 X19.673 Y4.802
G1 X18.388 Y2.503
G1 X20.579 Y2.226
G1 X22.785 Y1.926
G1 X25.008 Y1.608
G1 X25.629 Y0.000
G1 X24.108 Y0.000
G1 X25.008 Y1.608
G1 X27.252 Y1.280
G1 X29.516 Y0.949
G1 X28.967 Y0.000
G1 X29.899 Y0.000
G1 X29.516 Y0.949
G1 X31.803 Y0.623
G1 X34.111 Y0.308
G1 X36.440 Y0.012
G1 X36.445 Y0.000
G1 X59.840 Y0.000
G1 X59.873 Y0.036
G1 X57.163 Y0.527
G1 X57.436 Y0.000
G1 X56.665 Y0.000
G1 X57.163 Y0.527
G1 X54.469 Y1.073
G1 X56.077 Y2.746
G1 X57.163 Y0.527
G1 X58.759 Y2.226
G1 X59.873 Y0.036
G1 X59.893 Y0.000
G1 X60.000 Y0.000
G1 X60.000 Y0.175
G1 X59.873 Y0.036
G1 X60.000 Y0.016
G1 X60.000 Y8.085
G1 X58.297 Y8.405
G1 X59.307 Y6.163
G1 X60.000 Y6.914
G1 X60.000 Y9.978
G1 X59.922 Y10.154
G1 X58.297 Y8.405
G1 X56.668 Y6.685
G1 X55.038 Y4.991
G1 X53.411 Y3.323
G1 X52.400 Y5.597
G1 X50.761 Y3.955
G1 X49.780 Y6.257
G1 X48.846 Y8.584
G1 X47.177 Y6.973
G1 X49.780 Y6.257
G1 X48.129 Y4.642
G1 X47.177 Y6.973
G1 X46.274 Y9.328
G1 X48.846 Y8.584
G1 X51.437 Y7.896
G1 X49.780 Y6.257
G1 X52.400 Y5.597
G1 X51.437 Y7.896
G1 X50.518 Y10.221
G1 X47.959 Y10.936
G1 X48.846 Y8.584
G1 X50.518 Y10.221
G1 X49.642 Y12.572
G1 X47.959 Y10.936
G1 X46.274 Y9.328
G1 X44.593 Y7.744
G1 X45.516 Y5.384
G1 X47.177 Y6.973
G1 X44.593 Y7.744
G1 X42.922 Y6.180
G1 X41.267 Y4.630
G1 X43.867 Y3.812
G1 X42.237 Y2.252
G1 X41.267 Y4.630
G1 X39.632 Y3.090
G1 X38.022 Y1.552
G1 X36.440 Y0.012
G1 X35.443 Y2.450
G1 X34.111 Y0.308
G1 X33.128 Y2.774
G1 X32.200 Y5.260
G1 X30.834 Y3.116
G1 X33.128 Y2.774
G1 X31.803 Y0.623
G1 X30.834 Y3.116
G1 X29.921 Y5.628
G1 X29.062 Y8.157
G1 X26.819 Y8.554
G1 X27.663 Y6.003
G1 X29.062 Y8.157
G1 X28.259 Y10.701
G1 X26.819 Y8.554
G1 X25.427 Y6.375
G1 X27.663 Y6.003
G1 X29.921 Y5.628
G1 X28.562 Y3.468
G1 X26.312 Y3.821
G1 X27.663 Y6.003
G1 X28.562 Y3.468
G1 X29.516 Y0.949
G1 X30.834 Y3.116
G1 X28.562 Y3.468
G1 X27.252 Y1.280
G1 X26.312 Y3.821
G1 X25.427 Y6.375
G1 X24.596 Y8.941
G1 X26.030 Y11.116
G1 X26.819 Y8.554
G1 X24.596 Y8.941
G1 X22.388 Y9.308
G1 X23.209 Y6.734
G1 X21.870 Y4.495
G1 X24.082 Y4.166
G1 X23.209 Y6.734
G1 X25.427 Y6.375
G1 X24.082 Y4.166
G1 X26.312 Y3.821
G1 X25.008 Y1.608
G1 X24.082 Y4.166
G1 X22.785 Y1.926
G1 X21.870 Y4.495
G1 X20.579 Y2.226
G1 X19.673 Y4.802
G1 X21.870 Y4.495
G1 X21.006 Y7.070
G1 X23.209 Y6.734
G1 X24.596 Y8.941
G1 X23.818 Y11.513
G1 X26.030 Y11.116
G1 X28.259 Y10.701
G1 X30.509 Y10.283
G1 X31.327 Y7.763
G1 X29.062 Y8.157
G1 X30.509 Y10.283
G1 X32.781 Y9.875
G1 X31.327 Y7.763
G1 X29.921 Y5.628
G1 X32.200 Y5.260
G1 X34.501 Y4.907
G1 X33.128 Y2.774
G1 X35.443 Y2.450
G1 X34.501 Y4.907
G1 X33.614 Y7.382
G1 X31.327 Y7.763
G1 X32.200 Y5.260
G1 X33.614 Y7.382
G1 X32.781 Y9.875
G1 X32.003 Y12.384
G1 X30.509 Y10.283
G1 X29.746 Y12.819
G1 X29.038 Y15.369
G1 X27.511 Y13.259
G1 X29.746 Y12.819
G1 X28.259 Y10.701
G1 X27.511 Y13.259
G1 X26.030 Y11.116
G1 X25.294 Y13.686
G1 X27.511 Y13.259
G1 X26.817 Y15.825
G1 X29.038 Y15.369
G1 X31.280 Y14.908
G1 X29.746 Y12.819
G1 X32.003 Y12.384
G1 X31.280 Y14.908
G1 X30.612 Y17.447
G1 X28.386 Y17.930
G1 X29.038 Y15.369
G1 X30.612 Y17.447
G1 X30.000 Y20.000
G1 X32.377 Y18.887
G1 X30.612 Y17.447
G1 X33.021 Y16.361
G1 X33.719 Y13.851
G1 X35.456 Y15.324
G1 X33.021 Y16.361
G1 X34.779 Y17.826
G1 X35.456 Y15.324
G1 X36.184 Y12.841
G1 X36.966 Y10.377
G1 X38.674 Y11.883
G1 X39.486 Y9.446
G1 X36.966 Y10.377
G1 X37.801 Y7.929
G1 X39.486 Y9.446
G1 X41.187 Y10.977
G1 X38.674 Y11.883
G1 X36.184 Y12.841
G1 X37.915 Y14.339
G1 X40.395 Y13.408
G1 X38.674 Y11.883
G1 X37.915 Y14.339
G1 X39.650 Y15.861
G1 X40.395 Y13.408
G1 X41.187 Y10.977
G1 X42.029 Y8.568
G1 X40.350 Y7.029
G1 X39.486 Y9.446
G1 X42.029 Y8.568
G1 X42.922 Y6.180
G1 X40.350 Y7.029
G1 X37.801 Y7.929
G1 X35.277 Y8.880
G1 X34.470 Y11.357
G1 X36.966 Y10.377
G1 X35.277 Y8.880
G1 X33.614 Y7.382
G1 X36.138 Y6.419
G1 X37.053 Y3.976
G1 X38.690 Y5.500
G1 X36.138 Y6.419
G1 X37.801 Y7.929
G1 X38.690 Y5.500
G1 X40.350 Y7.029
G1 X41.267 Y4.630
G1 X38.690 Y5.500
G1 X39.632 Y3.090
G1 X37.053 Y3.976
G1 X38.022 Y1.552
G1 X35.443 Y2.450
G1 X37.053 Y3.976
G1 X34.501 Y4.907
G1 X36.138 Y6.419
G1 X35.277 Y8.880
G1 X32.781 Y9.875
G1 X34.470 Y11.357
G1 X36.184 Y12.841
G1 X33.719 Y13.851
G1 X34.470 Y11.357
G1 X32.003 Y12.384
G1 X33.719 Y13.851
G1 X31.280 Y14.908
G1 X33.021 Y16.361
G1 X32.377 Y18.887
G1 X34.779 Y17.826
G1 X37.203 Y16.817
G1 X37.915 Y14.339
G1 X35.456 Y15.324
G1 X37.203 Y16.817
G1 X39.650 Y15.861
G1 X42.118 Y14.958
G1 X40.395 Y13.408
G1 X42.896 Y12.530
G1 X45.418 Y11.706
G1 X43.720 Y10.126
G1 X42.896 Y12.530
G1 X41.187 Y10.977
G1 X43.720 Y10.126
G1 X44.593 Y7.744
G1 X42.029 Y8.568
G1 X43.720 Y10.126
G1 X46.274 Y9.328
G1 X45.418 Y11.706
G1 X44.607 Y14.109
G1 X42.896 Y12.530
G1 X42.118 Y14.958
G1 X44.607 Y14.109
G1 X47.115 Y13.314
G1 X47.959 Y10.936
G1 X45.418 Y11.706
G1 X47.115 Y13.314
G1 X49.642 Y12.572
G1 X52.188 Y11.885
G1 X50.518 Y10.221
G1 X53.095 Y9.560
G1 X54.044 Y7.263
G1 X55.688 Y8.955
G1 X53.095 Y9.560
G1 X54.750 Y11.253
G1 X55.688 Y8.955
G1 X56.668 Y6.685
G1 X54.044 Y7.263
G1 X55.038 Y4.991
G1 X52.400 Y5.597
G1 X54.044 Y7.263
G1 X51.437 Y7.896
G1 X53.095 Y9.560
G1 X52.188 Y11.885
G1 X54.750 Y11.253
G1 X57.328 Y10.676
G1 X58.297 Y8.405
G1 X55.688 Y8.955
G1 X57.328 Y10.676
G1 X59.922 Y10.154
G1 X60.000 Y10.140
G1 X60.000 Y14.998
G1 X59.289 Y14.465
G1 X60.000 Y14.327
G1 X60.000 Y12.224
G1 X59.595 Y12.299
G1 X60.000 Y12.600
G1 X60.000 Y10.212
G1 X59.922 Y10.154
G1 X59.595 Y12.299
G1 X59.289 Y14.465
G1 X58.999 Y16.651
G1 X60.000 Y17.409
G1 X60.000 Y16.450
G1 X58.999 Y16.651
G1 X58.721 Y18.859
G1 X58.451 Y21.088
G1 X56.233 Y19.434
G1 X55.986 Y21.677
G1 X53.536 Y22.321
G1 X55.740 Y23.942
G1 X55.986 Y21.677
G1 X58.183 Y23.339
G1 X55.740 Y23.942
G1 X53.311 Y24.598
G1 X53.536 Y22.321
G1 X53.760 Y20.065
G1 X55.986 Y21.677
G1 X58.451 Y21.088
G1 X58.183 Y23.339
G1 X57.913 Y25.612
G1 X55.489 Y26.228
G1 X55.740 Y23.942
G1 X57.913 Y25.612
G1 X57.635 Y27.905
G1 X55.489 Y26.228
G1 X53.311 Y24.598
G1 X51.101 Y23.017
G1 X51.303 Y20.748
G1 X53.536 Y22.321
G1 X51.101 Y23.017
G1 X48.862 Y21.486
G1 X51.303 Y20.748
G1 X53.760 Y20.065
G1 X56.233 Y19.434
G1 X58.721 Y18.859
G1 X60.000 Y19.840
G1 X60.000 Y20.754
G1 X58.451 Y21.088
G1 X60.000 Y22.293
G1 X60.000 Y22.933
G1 X58.183 Y23.339
G1 X60.000 Y24.774
G1 X60.000 Y27.287
G1 X57.913 Y25.612
G1 X60.000 Y25.130
G1 X60.000 Y27.343
G1 X57.635 Y27.905
G1 X55.227 Y28.533
G1 X55.489 Y26.228
G1 X53.077 Y26.896
G1 X50.676 Y27.617
G1 X50.894 Y25.307
G1 X53.077 Y26.896
G1 X53.311 Y24.598
G1 X50.894 Y25.307
G1 X48.490 Y26.069
G1 X50.676 Y27.617
G1 X52.829 Y29.213
G1 X53.077 Y26.896
G1 X55.227 Y28.533
G1 X52.829 Y29.213
G1 X50.439 Y29.945
G1 X48.284 Y28.390
G1 X50.676 Y27.617
G1 X50.439 Y29.945
G1 X48.054 Y30.726
G1 X48.284 Y28.390
G1 X48.490 Y26.069
G1 X48.681 Y23.768
G1 X51.101 Y23.017
G1 X50.894 Y25.307
G1 X48.681 Y23.768
G1 X48.862 Y21.486
G1 X49.041 Y19.226
G1 X51.303 Y20.748
G1 X51.506 Y18.501
G1 X51.717 Y16.275
G1 X53.987 Y17.830
G1 X51.506 Y18.501
G1 X53.760 Y20.065
G1 X53.987 Y17.830
G1 X54.225 Y15.617
G1 X51.717 Y16.275
G1 X49.227 Y16.988
G1 X51.506 Y18.501
G1 X49.041 Y19.226
G1 X49.227 Y16.988
G1 X49.425 Y14.770
G1 X51.942 Y14.070
G1 X51.717 Y16.275
G1 X49.425 Y14.770
G1 X47.115 Y13.314
G1 X46.925 Y15.524
G1 X46.754 Y17.754
G1 X44.445 Y16.331
G1 X46.925 Y15.524
G1 X44.607 Y14.109
G1 X44.445 Y16.331
G1 X44.301 Y18.573
G1 X44.166 Y20.836
G1 X41.867 Y19.446
G1 X41.755 Y21.721
G1 X44.166 Y20.836
G1 X44.029 Y23.121
G1 X41.755 Y21.721
G1 X39.453 Y20.372
G1 X41.867 Y19.446
G1 X44.301 Y18.573
G1 X46.594 Y20.004
G1 X46.437 Y22.277
G1 X44.166 Y20.836
G1 X46.594 Y20.004
G1 X48.862 Y21.486
G1 X46.437 Y22.277
G1 X44.029 Y23.121
G1 X41.635 Y24.017
G1 X39.360 Y22.658
G1 X41.755 Y21.721
G1 X41.635 Y24.017
G1 X41.497 Y26.331
G1 X43.881 Y25.425
G1 X46.098 Y26.883
G1 X46.275 Y24.570
G1 X43.881 Y25.425
G1 X44.029 Y23.121
G1 X46.275 Y24.570
G1 X48.681 Y23.768
G1 X46.437 Y22.277
G1 X46.275 Y24.570
G1 X48.490 Y26.069
G1 X46.098 Y26.883
G1 X45.899 Y29.212
G1 X48.284 Y28.390
G1 X46.098 Y26.883
G1 X43.713 Y27.747
G1 X43.881 Y25.425
G1 X41.635 Y24.017
G1 X39.252 Y24.964
G1 X39.360 Y22.658
G1 X39.453 Y20.372
G1 X39.545 Y18.106
G1 X41.984 Y17.192
G1 X41.867 Y19.446
G1 X39.545 Y18.106
G1 X37.203 Y16.817
G1 X37.126 Y19.073
G1 X34.729 Y20.093
G1 X37.058 Y21.350
G1 X37.126 Y19.073
G1 X39.453 Y20.372
G1 X37.058 Y21.350
G1 X36.980 Y23.647
G1 X39.360 Y22.658
G1 X37.058 Y21.350
G1 X34.679 Y22.381
G1 X34.729 Y20.093
G1 X32.377 Y18.887
G1 X32.352 Y21.165
G1 X34.729 Y20.093
G1 X34.779 Y17.826
G1 X37.126 Y19.073
G1 X39.545 Y18.106
G1 X39.650 Y15.861
G1 X41.984 Y17.192
G1 X42.118 Y14.958
G1 X44.445 Y16.331
G1 X41.984 Y17.192
G1 X44.301 Y18.573
G1 X46.754 Y17.754
G1 X46.594 Y20.004
G1 X49.041 Y19.226
G1 X46.754 Y17.754
G1 X49.227 Y16.988
G1 X46.925 Y15.524
G1 X49.425 Y14.770
G1 X49.642 Y12.572
G1 X51.942 Y14.070
G1 X54.225 Y15.617
G1 X56.485 Y17.213
G1 X56.233 Y19.434
G1 X53.987 Y17.830
G1 X56.485 Y17.213
G1 X58.999 Y16.651
G1 X56.749 Y15.014
G1 X54.477 Y13.425
G1 X57.028 Y12.835
G1 X56.749 Y15.014
G1 X59.289 Y14.465
G1 X57.028 Y12.835
G1 X59.595 Y12.299
G1 X57.328 Y10.676
G1 X57.028 Y12.835
G1 X54.750 Y11.253
G1 X54.477 Y13.425
G1 X52.188 Y11.885
G1 X51.942 Y14.070
G1 X54.477 Y13.425
G1 X54.225 Y15.617
G1 X56.749 Y15.014
G1 X56.485 Y17.213
G1 X58.721 Y18.859
G1 X60.000 Y18.592
G1 X60.000 Y34.073
G1 X59.091 Y34.286
G1 X59.429 Y31.950
G1 X60.000 Y32.445
G1 X60.000 Y35.089
G1 X59.091 Y34.286
G1 X57.037 Y32.548
G1 X59.429 Y31.950
G1 X60.000 Y31.819
G1 X60.000 Y29.845
G1 X59.748 Y29.630
G1 X57.345 Y30.218
G1 X59.429 Y31.950
G1 X59.748 Y29.630
G1 X60.000 Y27.736
G1 X60.000 Y29.575
G1 X59.748 Y29.630
G1 X57.635 Y27.905
G1 X57.345 Y30.218
G1 X57.037 Y32.548
G1 X56.708 Y34.894
G1 X58.730 Y36.638
G1 X59.091 Y34.286
G1 X56.708 Y34.894
G1 X54.329 Y35.552
G1 X54.652 Y33.198
G1 X52.562 Y31.547
G1 X54.950 Y30.857
G1 X54.652 Y33.198
G1 X57.037 Y32.548
G1 X54.950 Y30.857
G1 X57.345 Y30.218
G1 X55.227 Y28.533
G1 X54.950 Y30.857
G1 X52.829 Y29.213
G1 X52.562 Y31.547
G1 X50.439 Y29.945
G1 X50.178 Y32.287
G1 X52.562 Y31.547
G1 X52.270 Y33.897
G1 X54.652 Y33.198
G1 X56.708 Y34.894
G1 X56.354 Y37.255
G1 X58.730 Y36.638
G1 X60.000 Y36.335
G1 X60.000 Y37.781
G1 X58.730 Y36.638
G1 X58.344 Y39.003
G1 X60.000 Y38.601
G1 X60.000 Y40.000
G1 X59.431 Y40.000
G1 X58.344 Y39.003
G1 X56.354 Y37.255
G1 X54.329 Y35.552
G1 X52.270 Y33.897
G1 X50.178 Y32.287
G1 X48.054 Y30.726
G1 X45.899 Y29.212
G1 X43.713 Y27.747
G1 X41.497 Y26.331
G1 X39.252 Y24.964
G1 X36.980 Y23.647
G1 X34.679 Y22.381
G1 X32.352 Y21.165
G1 X30.000 Y20.000
G1 X28.386 Y17.930
G1 X29.038 Y15.369
G1 X29.746 Y12.819
G1 X30.509 Y10.283
G1 X31.327 Y7.763
G1 X32.200 Y5.260
G1 X33.128 Y2.774
G1 X34.111 Y0.308
G1 X34.241 Y0.000
G1 X17.219 Y0.000
G1 X17.151 Y0.174
G1 X18.693 Y0.000
G1 X0.699 Y0.000
G1 X0.007 Y1.020
G1 X0.000 Y1.030
G1 X0.000 Y36.434
G1 X0.524 Y36.559
G1 X3.268 Y37.154
G1 X1.174 Y38.665
G1 X3.926 Y39.249
G1 X3.268 Y37.154
G1 X6.013 Y37.695
G1 X3.926 Y39.249
G1 X2.869 Y40.000
G1 X1.575 Y40.000
G1 X1.174 Y38.665
G1 X0.524 Y36.559
G1 X2.589 Y35.046
G1 X5.326 Y35.600
G1 X3.268 Y37.154
G1 X2.589 Y35.046
G1 X4.618 Y33.490
G1 X5.326 Y35.600
G1 X6.013 Y37.695
G1 X6.677 Y39.779
G1 X6.376 Y40.000
G1 X4.155 Y40.000
G1 X3.926 Y39.249
G1 X6.677 Y39.779
G1 X7.944 Y40.000
G1 X9.341 Y40.000
G1 X8.757 Y38.183
G1 X10.799 Y36.544
G1 X8.064 Y36.098
G1 X8.757 Y38.183
G1 X6.013 Y37.695
G1 X8.064 Y36.098
G1 X7.347 Y34.002
G1 X5.326 Y35.600
G1 X8.064 Y36.098
G1 X10.076 Y34.459
G1 X10.799 Y36.544
G1 X13.531 Y36.938
G1 X12.803 Y34.863
G1 X10.799 Y36.544
G1 X11.496 Y38.619
G1 X8.757 Y38.183
G1 X6.677 Y39.779
G1 X6.745 Y40.000
G1 X0.000 Y40.000
G1 X0.000 Y38.393
G1 X1.174 Y38.665
G1 X0.000 Y39.474
G1 X0.000 Y36.925
G1 X0.524 Y36.559
G1 X0.000 Y34.894
G1 X0.000 Y34.469
G1 X2.589 Y35.046
G1 X1.893 Y32.922
G1 X0.000 Y34.330
G1 X0.000 Y40.000
G1 X43.064 Y40.000
G1 X42.860 Y39.848
G1 X42.626 Y40.000
G1 X38.894 Y40.000
G1 X38.878 Y39.645
G1 X40.797 Y38.379
G1 X42.860 Y39.848
G1 X43.064 Y40.000
G1 X43.064 Y40.000
G1 X42.860 Y39.848

