;  Created by Sandify
;  https://sandify.org
;  Version: 0.2.8
;
;  Machine type: Rectangular
;    Min X (mm): 0
;    Max X (mm): 60
;    Min Y (mm): 0
;    Max Y (mm): 40
;  Content type: shape
;  Layer:
;    Shape: Text
;    Name: polygon
;    Text: TMU
;    Font: Monospace
;    Rotate: Center
;    Visible: true
;    Initial width: 11
;    Initial height: 5
;    X offset: 0
;    Y offset: 0
;    Rotate (degrees): 0
;    Reverse path: false
;    Fine tuning:
;      Connect to next layer: line
;      Draw portion of path (%): 100
;      Backtrack at end (%): 0
;      Rotate starting point (%): 0
;  Reverse export path: false
;
; File name: 'TMU'
; File type: gcode
;

G1 X12.469 Y11.875
G1 X12.469 Y26.875
G1 X5.250 Y26.875
G1 X19.688 Y26.875
G1 X12.469 Y26.875
G1 X12.469 Y13.750
G1 X12.469 Y11.875
G1 X21.750 Y11.875
G1 X21.750 Y13.750
G1 X21.750 Y26.875
G1 X28.969 Y13.750
G1 X36.188 Y26.875
G1 X36.188 Y13.750
G1 X36.188 Y26.875
G1 X28.969 Y13.750
G1 X21.750 Y26.875
G1 X21.750 Y13.750
G1 X21.750 Y11.875
G1 X38.250 Y11.875
G1 X45.469 Y11.875
G1 X45.469 Y13.750
G1 X45.115 Y13.758
G1 X44.761 Y13.782
G1 X44.410 Y13.821
G1 X44.060 Y13.876
G1 X43.715 Y13.947
G1 X43.373 Y14.033
G1 X43.037 Y14.134
G1 X42.706 Y14.250
G1 X42.382 Y14.380
G1 X42.066 Y14.525
G1 X41.758 Y14.684
G1 X41.458 Y14.856
G1 X41.169 Y15.041
G1 X40.889 Y15.240
G1 X40.621 Y15.450
G1 X40.364 Y15.672
G1 X40.120 Y15.905
G1 X39.889 Y16.149
G1 X39.671 Y16.403
G1 X39.467 Y16.667
G1 X39.277 Y16.939
G1 X39.102 Y17.219
G1 X38.943 Y17.507
G1 X38.799 Y17.801
G1 X38.672 Y18.102
G1 X38.561 Y18.408
G1 X38.466 Y18.718
G1 X38.389 Y19.032
G1 X38.328 Y19.350
G1 X38.285 Y19.669
G1 X38.259 Y19.990
G1 X38.250 Y20.313
G1 X38.250 Y26.875
G1 X38.250 Y20.313
G1 X38.259 Y19.990
G1 X38.285 Y19.669
G1 X38.328 Y19.350
G1 X38.389 Y19.032
G1 X38.466 Y18.718
G1 X38.561 Y18.408
G1 X38.672 Y18.102
G1 X38.799 Y17.801
G1 X38.943 Y17.507
G1 X39.102 Y17.219
G1 X39.277 Y16.939
G1 X39.467 Y16.667
G1 X39.671 Y16.403
G1 X39.889 Y16.149
G1 X40.120 Y15.905
G1 X40.364 Y15.672
G1 X40.621 Y15.450
G1 X40.889 Y15.240
G1 X41.169 Y15.041
G1 X41.458 Y14.856
G1 X41.758 Y14.684
G1 X42.066 Y14.525
G1 X42.382 Y14.380
G1 X42.706 Y14.250
G1 X43.037 Y14.134
G1 X43.373 Y14.033
G1 X43.715 Y13.947
G1 X44.060 Y13.876
G1 X44.410 Y13.821
G1 X44.761 Y13.782
G1 X45.115 Y13.758
G1 X45.469 Y13.750
G1 X45.823 Y13.758
G1 X46.176 Y13.782
G1 X46.528 Y13.821
G1 X46.877 Y13.876
G1 X47.223 Y13.947
G1 X47.564 Y14.033
G1 X47.901 Y14.134
G1 X48.231 Y14.250
G1 X48.555 Y14.380
G1 X48.872 Y14.525
G1 X49.180 Y14.684
G1 X49.479 Y14.856
G1 X49.769 Y15.041
G1 X50.048 Y15.240
G1 X50.317 Y15.450
G1 X50.573 Y15.672
G1 X50.817 Y15.905
G1 X51.049 Y16.149
G1 X51.267 Y16.403
G1 X51.471 Y16.667
G1 X51.660 Y16.939
G1 X51.835 Y17.219
G1 X51.994 Y17.507
G1 X52.138 Y17.801
G1 X52.266 Y18.102
G1 X52.377 Y18.408
G1 X52.471 Y18.718
G1 X52.549 Y19.032
G1 X52.609 Y19.350
G1 X52.653 Y19.669
G1 X52.679 Y19.990
G1 X52.688 Y20.313
G1 X52.688 Y26.875
G1 X52.688 Y20.313
G1 X52.679 Y19.990
G1 X52.653 Y19.669
G1 X52.609 Y19.350
G1 X52.549 Y19.032
G1 X52.471 Y18.718
G1 X52.377 Y18.408
G1 X52.266 Y18.102
G1 X52.138 Y17.801
G1 X51.994 Y17.507
G1 X51.835 Y17.219
G1 X51.660 Y16.939
G1 X51.471 Y16.667
G1 X51.267 Y16.403
G1 X51.049 Y16.149
G1 X50.817 Y15.905
G1 X50.573 Y15.672
G1 X50.317 Y15.450
G1 X50.048 Y15.240
G1 X49.769 Y15.041
G1 X49.479 Y14.856
G1 X49.180 Y14.684
G1 X48.872 Y14.525
G1 X48.555 Y14.380
G1 X48.231 Y14.250
G1 X47.901 Y14.134
G1 X47.564 Y14.033
G1 X47.223 Y13.947
G1 X46.877 Y13.876
G1 X46.528 Y13.821
G1 X46.176 Y13.782
G1 X45.823 Y13.758
G1 X45.469 Y13.750
G1 X45.469 Y11.875
G1 X54.750 Y11.875
G1 X60.000 Y8.754
G1 X60.000 Y0.000
G1 X0.000 Y0.000
G1 X0.000 Y0.000

